communes/4641.svg

<?xml version="1.0" encoding="UTF-8" standalone="no"?>
<!-- Created with Inkscape (http://www.inkscape.org/) -->

<svg
   xmlns:dc="http://purl.org/dc/elements/1.1/"
   xmlns:cc="http://creativecommons.org/ns#"
   xmlns:rdf="http://www.w3.org/1999/02/22-rdf-syntax-ns#"
   xmlns:svg="http://www.w3.org/2000/svg"
   xmlns="http://www.w3.org/2000/svg"
   xmlns:sodipodi="http://sodipodi.sourceforge.net/DTD/sodipodi-0.dtd"
   xmlns:inkscape="http://www.inkscape.org/namespaces/inkscape"
   version="1.1"
   id="svg4161"
   inkscape:version="0.91+devel r14423"
   width="143.53513"
   height="173.99101"
   viewBox="0 0 143.53512 173.99101"
   sodipodi:docname="Altnau CoA.svg">
  <title
     id="title4235">Altnau CoA</title>
  <metadata
     id="metadata4167">
    <rdf:RDF>
      <cc:Work
         rdf:about="">
        <dc:format>image/svg+xml</dc:format>
        <dc:type
           rdf:resource="http://purl.org/dc/dcmitype/StillImage" />
        <dc:title>Altnau CoA</dc:title>
        <cc:license
           rdf:resource="http://creativecommons.org/publicdomain/zero/1.0/" />
        <dc:date>2015-11-01</dc:date>
        <dc:creator>
          <cc:Agent>
            <dc:title>User:Rwchhs</dc:title>
          </cc:Agent>
        </dc:creator>
        <dc:rights>
          <cc:Agent>
            <dc:title>PD</dc:title>
          </cc:Agent>
        </dc:rights>
      </cc:Work>
      <cc:License
         rdf:about="http://creativecommons.org/publicdomain/zero/1.0/">
        <cc:permits
           rdf:resource="http://creativecommons.org/ns#Reproduction" />
        <cc:permits
           rdf:resource="http://creativecommons.org/ns#Distribution" />
        <cc:permits
           rdf:resource="http://creativecommons.org/ns#DerivativeWorks" />
      </cc:License>
    </rdf:RDF>
  </metadata>
  <defs
     id="defs4165" />
  <sodipodi:namedview
     pagecolor="#ffffff"
     bordercolor="#666666"
     borderopacity="1"
     objecttolerance="10"
     gridtolerance="10"
     guidetolerance="10"
     inkscape:pageopacity="0"
     inkscape:pageshadow="2"
     inkscape:window-width="1280"
     inkscape:window-height="961"
     inkscape:document-units="px"
     id="namedview4163"
     showgrid="false"
     inkscape:zoom="2.8284271"
     inkscape:cx="91.949669"
     inkscape:cy="82.112098"
     inkscape:window-x="-8"
     inkscape:window-y="-8"
     inkscape:window-maximized="1"
     inkscape:current-layer="layer2"
     fit-margin-top="0"
     fit-margin-left="0"
     fit-margin-right="0"
     fit-margin-bottom="0" />
  <g
     inkscape:groupmode="layer"
     id="layer2"
     inkscape:label="Layer 2"
     transform="translate(-6.8086255,-6.3213313)">
    <path
       style="fill:#ffffff;fill-rule:evenodd;stroke:#000000;stroke-width:1.00157475;stroke-linecap:round;stroke-linejoin:round;stroke-miterlimit:4;stroke-dasharray:none;stroke-opacity:1;fill-opacity:1"
       d="m 77.479777,179.81156 c 59.708223,0 72.363183,-50.67496 72.363183,-72.36336 V 6.8221187 H 7.3094129 V 107.4482 c 0,21.74721 10.4621391,72.36336 70.1703641,72.36336 z"
       id="path4173"
       inkscape:connector-curvature="0"
       sodipodi:nodetypes="zccccz" />
  </g>
  <g
     inkscape:groupmode="layer"
     id="layer3"
     inkscape:label="Layer 3"
     style="display:inline"
     transform="translate(-6.8086255,-6.3213313)">
    <path
       style="fill:#ff0000;fill-opacity:1;fill-rule:evenodd;stroke:#000000;stroke-width:0.62362206;stroke-linecap:butt;stroke-linejoin:round;stroke-miterlimit:4;stroke-dasharray:none;stroke-opacity:1"
       d="M 59.438157,6.8236504 V 66.951205 l 18.779012,18.779 V 6.8236504 Z"
       id="path4178"
       inkscape:connector-curvature="0"
       sodipodi:nodetypes="ccccc" />
    <path
       style="fill:#000000;fill-opacity:1;fill-rule:evenodd;stroke:#000000;stroke-width:0.62362206;stroke-linecap:butt;stroke-linejoin:round;stroke-miterlimit:4;stroke-dasharray:none;stroke-opacity:1"
       d="M 96.99,6.9481047 V 66.951205 l -18.779282,18.779 V 6.8262817 Z"
       id="path4180"
       inkscape:connector-curvature="0"
       sodipodi:nodetypes="ccccc" />
    <g
       id="g4202"
       transform="rotate(-90,90.178257,85.881758)">
      <path
         sodipodi:nodetypes="ccccc"
         inkscape:connector-curvature="0"
         id="path4178-3"
         d="M 71.55697,3.0141187 V 55.141661 L 90.335982,73.920657 V 3.0141187 Z"
         style="display:inline;fill:#ff0000;fill-opacity:1;fill-rule:evenodd;stroke:#000000;stroke-width:0.62362206;stroke-linecap:butt;stroke-linejoin:round;stroke-miterlimit:4;stroke-dasharray:none;stroke-opacity:1" />
      <path
         sodipodi:nodetypes="ccccc"
         inkscape:connector-curvature="0"
         id="path4180-2"
         d="M 109.10881,3.138573 V 55.141661 L 90.329531,73.920657 V 3.01675 Z"
         style="display:inline;fill:#000000;fill-opacity:1;fill-rule:evenodd;stroke:#000000;stroke-width:0.62362206;stroke-linecap:butt;stroke-linejoin:round;stroke-miterlimit:4;stroke-dasharray:none;stroke-opacity:1" />
    </g>
    <g
       style="display:inline"
       id="g4202-7"
       transform="rotate(90,78.368711,73.762946)">
      <path
         sodipodi:nodetypes="ccccc"
         inkscape:connector-curvature="0"
         id="path4178-3-5"
         d="m 71.55697,2.295092 v 52.846565 l 18.779012,18.779 V 2.295092 Z"
         style="display:inline;fill:#ff0000;fill-opacity:1;fill-rule:evenodd;stroke:#000000;stroke-width:0.62362206;stroke-linecap:butt;stroke-linejoin:round;stroke-miterlimit:4;stroke-dasharray:none;stroke-opacity:1" />
      <path
         sodipodi:nodetypes="ccccc"
         inkscape:connector-curvature="0"
         id="path4180-2-7"
         d="M 109.10881,2.4195463 V 55.141657 l -18.779279,18.779 V 2.2977233 Z"
         style="display:inline;fill:#000000;fill-opacity:1;fill-rule:evenodd;stroke:#000000;stroke-width:0.62362206;stroke-linecap:butt;stroke-linejoin:round;stroke-miterlimit:4;stroke-dasharray:none;stroke-opacity:1" />
    </g>
    <g
       style="display:inline"
       id="g4202-4"
       transform="rotate(-180,84.273485,79.822351)">
      <path
         sodipodi:nodetypes="ccccc"
         inkscape:connector-curvature="0"
         id="path4178-3-2"
         d="m 71.55697,-18.041485 v 73.183142 l 18.779012,18.779 v -93.976768 c -7.314169,0 -13.206186,0.521392 -18.779012,2.014626 z"
         style="display:inline;fill:#ff0000;fill-opacity:1;fill-rule:evenodd;stroke:#000000;stroke-width:0.62362206;stroke-linecap:butt;stroke-linejoin:round;stroke-miterlimit:4;stroke-dasharray:none;stroke-opacity:1" />
      <path
         sodipodi:nodetypes="ccccc"
         inkscape:connector-curvature="0"
         id="path4180-2-4"
         d="m 109.10881,-17.854531 v 72.996188 l -18.779279,18.779 V -20.05348 c 7.050911,0.174335 13.604169,0.734998 18.779279,2.198949 z"
         style="display:inline;fill:#000000;fill-opacity:1;fill-rule:evenodd;stroke:#000000;stroke-width:0.62362206;stroke-linecap:butt;stroke-linejoin:round;stroke-miterlimit:4;stroke-dasharray:none;stroke-opacity:1" />
    </g>
  </g>
</svg>

<?xml version="1.0" encoding="UTF-8"?>
<svg version="1.1" viewBox="0 0 143.54 173.99" xmlns="http://www.w3.org/2000/svg" xmlns:cc="http://creativecommons.org/ns#" xmlns:dc="http://purl.org/dc/elements/1.1/" xmlns:rdf="http://www.w3.org/1999/02/22-rdf-syntax-ns#">
<title>Altnau CoA</title>
<metadata>
<rdf:RDF>
<cc:Work rdf:about="">
<dc:format>image/svg+xml</dc:format>
<dc:type rdf:resource="http://purl.org/dc/dcmitype/StillImage"/>
<dc:title>Altnau CoA</dc:title>
<cc:license rdf:resource="http://creativecommons.org/publicdomain/zero/1.0/"/>
<dc:date>2015-11-01</dc:date>
<dc:creator>
<cc:Agent>
<dc:title>User:Rwchhs</dc:title>
</cc:Agent>
</dc:creator>
<dc:rights>
<cc:Agent>
<dc:title>PD</dc:title>
</cc:Agent>
</dc:rights>
</cc:Work>
<cc:License rdf:about="http://creativecommons.org/publicdomain/zero/1.0/">
<cc:permits rdf:resource="http://creativecommons.org/ns#Reproduction"/>
<cc:permits rdf:resource="http://creativecommons.org/ns#Distribution"/>
<cc:permits rdf:resource="http://creativecommons.org/ns#DerivativeWorks"/>
</cc:License>
</rdf:RDF>
</metadata>
<g transform="translate(-6.8086 -6.3213)">
<path d="m77.48 179.81c59.708 0 72.363-50.675 72.363-72.363v-100.63h-142.53v100.63c0 21.747 10.462 72.363 70.17 72.363z" fill="#fff" fill-rule="evenodd" stroke="#000" stroke-linecap="round" stroke-linejoin="round" stroke-width="1.0016"/>
</g>
<g transform="translate(-6.8086 -6.3213)" fill-rule="evenodd" stroke="#000" stroke-linejoin="round" stroke-width=".62362">
<path d="m59.438 6.8237v60.128l18.779 18.779v-78.907z" fill="#f00"/>
<path d="m96.99 6.9481v60.003l-18.779 18.779v-78.904z"/>
<g transform="rotate(-90 90.178 85.882)">
<path d="m71.557 3.0141v52.128l18.779 18.779v-70.907z" fill="#f00"/>
<path d="m109.11 3.1386v52.003l-18.779 18.779v-70.904z"/>
</g>
<g transform="rotate(90 78.369 73.763)">
<path d="m71.557 2.2951v52.847l18.779 18.779v-71.626z" fill="#f00"/>
<path d="m109.11 2.4195v52.722l-18.779 18.779v-71.623z"/>
</g>
<g transform="rotate(180 84.273 79.822)">
<path d="m71.557-18.041v73.183l18.779 18.779v-93.977c-7.3142 0-13.206 0.52139-18.779 2.0146z" fill="#f00"/>
<path d="m109.11-17.855v72.996l-18.779 18.779v-93.974c7.0509 0.17434 13.604 0.735 18.779 2.1989z"/>
</g>
</g>
</svg>
